X: 1433
T: Polonesse in B Dur no 2 ur Anders Larssons notbok
R: Slängpolska
C: Carl Michael Ritter von Esser
S: efter Anders Larsson i Backa
B: Anders Larssons notbok
B: http://www.smus.se/earkiv/fmk/browselarge.php?lang=sw&katalogid=M+189&bildnr=00013
B: Jämför [[http://www.smus.se/earkiv/fmk/browselarge.php?lang=sw&katalogid=M+170&bildnr=00012|SMUS - katalog M170 bild 12]] (no 66) ur [[Notböcker/Conrad Sandstens notbok]]
B: och [[http://www.smus.se/earkiv/fmk/browselarge.php?lang=sw&katalogid=M+168&bildnr=00032|katalog M168 bild 32]] (som har förtecken angivna)
B: och [[http://www.smus.se/earkiv/fmk/browselarge.php?lang=sw&katalogid=Ma+7&bildnr=00015|SMUS - katalog Ma7 bild 15]] nr 33 efter [[Personer/Andreas Dahlgren]],
B: och [[http://www.smus.se/earkiv/fmk/browselarge.php?lang=sw&katalogid=Hs+2&bildnr=00003|katalog Hs2 bild 3]], [[http://www.smus.se/earkiv/fmk/browselarge.php?lang=sw&katalogid=Hs+2&bildnr=00014|bild 14]] efter [[Personer/Liv Anders]]
B: och [[http://www.smus.se/earkiv/fmk/browselarge.php?lang=sw&katalogid=Ma+9&bildnr=00046|Ma9 bild 46]] efter [[Personer/Ludvig Olsson]]
B: och [[http://www.smus.se/earkiv/fmk/browselarge.php?lang=sw&katalogid=M+19&bildnr=00021|M19 bild 21]] efter [[Personer/Johan August Ericsson]] från [[Platser/Södermanland]]
B: och [[http://www.smus.se/earkiv/fmk/browselarge.php?lang=sw&katalogid=Ske+30&bildnr=00034|Ske30 bild 34]] efter [[Personer/Johan Jacob Bruun]] från [[Platser/Skåne]]
B: och [[http://www.smus.se/earkiv/fmk/browselarge.php?lang=sw&katalogid=M+36&bildnr=00007|M36 bild 7]] nr 18 ur [[Notböcker/220 Svenska Folkdanser]]
B: och [[http://www.smus.se/earkiv/fmk/browselarge.php?lang=sw&katalogid=Ma+18&bildnr=00016|Ma18 bild 14]] nr 51 ur [[Notböcker/Lars Larssons notbok]]
B: och [[http://www.smus.se/earkiv/fmk/browselarge.php?lang=sw&katalogid=M+93&bildnr=00016|M93 bild 16]] nr 22 efter [[Personer/Andreas Grevelius]]
B: och [[http://www.smus.se/earkiv/fmk/browselarge.php?lang=sw&katalogid=Ma+4&bildnr=00027|Ma4 bild 27]] nr 94 ur [[Notböcker/Kumlins notsamling]]
B: och [[http://www.smus.se/earkiv/fmk/browselarge.php?lang=sw&katalogid=%C5n+1&bildnr=00066|Ån1 bild 66]] nr 117
B: och [[http://www.smus.se/earkiv/fmk/browselarge.php?lang=sw&katalogid=M+29&bildnr=00038|M29 bild 38]] nr 23 ur [[Notböcker/AP Roos notbok]]
B: och [[http://www.smus.se/earkiv/fmk/browselarge.php?lang=sw&katalogid=MMD+66&bildnr=00110|MMD66 bild 110]] nr 113
B: och [[http://www.smus.se/earkiv/fmk/browselarge.php?lang=sw&katalogid=Ma+13a&bildnr=00090|Ma13a bild 90]] nr 266 efter [[Personer/Johan Eric Blomgren]]
B: och [[http://www.smus.se/earkiv/fmk/browselarge.php?lang=sw&katalogid=M+31&bildnr=00007|M31 bild 7]] nr 18
B: och [[http://www.smus.se/earkiv/fmk/browselarge.php?lang=sw&katalogid=Sm+18&bildnr=00011|Sm18 bild 11]] 
B: och [[http://www.smus.se/earkiv/fmk/browselarge.php?lang=sw&katalogid=Upprop+15&bildnr=00024|Upprop15 bild 24]]
B: och [[http://www.smus.se/earkiv/fmk/browselarge.php?lang=sw&katalogid=M+30a&bildnr=00016|M30a bild 16]] nr 48
B: och [[http://www.smus.se/earkiv/fmk/browselarge.php?lang=sw&katalogid=M+182&bildnr=00041|M182 bild 41]] nr 54 ur [[Notböcker/Fredric Lindgrens notbok]]
B: och [[http://www.smus.se/earkiv/fmk/browselarge.php?lang=sw&katalogid=Ma+8&bildnr=00009|Ma8 bild 9]] nr 14
B: och [[http://www.smus.se/earkiv/fmk/browselarge.php?lang=sw&katalogid=Ma+13e&bildnr=00071|Ma13e bild 71]] nr 139 efter [[Personer/Blomgren]]
B: och [[http://www.smus.se/earkiv/fmk/browselarge.php?lang=sw&katalogid=Ma+17&bildnr=00009|Ma17 bild 9]] nr 12
B: och [[http://www.smus.se/earkiv/fmk/browselarge.php?lang=sw&katalogid=Hs+11&bildnr=00094|Hs11 bild 94]] nr 24 ("s.k. grova och granna")
B: Jämför [[http://www.samlingarna.sormlandsspel.se/wp-content/uploads/2013/04/ramelius_carl.pdf|Carl Råmelius notbok]] (pdf) nr 12 sid 6
B: Traditioner av Svenska Folkdansar Häfte 4, nr 28
N: B-förtecknet på A i andrareprisen finns inte i originaluppteckningen, men det låter konstigt utan det. 
N: Även takt 4 är litet märklig och man kan fråga sig om uppteckningen verkligen motsvarar hur låten spelades där; jämför motsvarande passage på sista notraden.
N: referenser hämtade från [[http://www.smus.se/earkiv/fmk/browselarge.php?lang=sw&katalogid=Ma+4&bildnr=00007|smus.se]]: "Polskan går under namnet Liv Anders polska och är komponerad av Esser. Se anm. i Sv.L. Hälsingland nr 23. Den ingår i ett flertal notböcker från senare delen av 1700-talet, däribland Åhl. I nr 33, Blomgrenska saml. fr. Skåne 1780, en småländsk saml. märkt Donat fr 1792 m.fl."
Z: Nils L 
O: Östra Ryd, Östergötland
M: 3/4
L: 1/16
K: Bb
d2e2 f4f4 | f2b2 d'4 f4 | gfed e8 | e2ab d'4 e4 | d2Ac B2F2D2B,2 | dcdA B2F2D2B,2 | 
A,FcF eFcF A,FcF | B,FdF B,FdF B,FdF | A,FcF eFcF A,FcF | B,FdF B,FdF B,FdF  |
 d2e2 f4 d'4 | c'bac' b8 :: d'2b2f2d2 B4 | Acea c6B2 | CFAc f4 c4 | dcBA F4 E4 |
DBfB _aBfB DBfB | EBgB EBgB EBgB | DBfB _aBfB DBfB | EBgB EBgB EBgB |
Ecgc bcgc Ecgc | Fcac Fcac Fcac | Ecgc bcgc Ecgc | Fcac Fcac Fcac | 
d2e2 f4   f4   | babc' d'4 f4   | f2ed e8        | ebab c'4  e4   | d2f2 b4   d'4  | c'2ba b8 :|
(:musicend:)
(:music:)
